svg/ats_alt.svg

<svg xmlns="http://www.w3.org/2000/svg" width="24" height="24" viewBox="0 0 24 24"><path d="M8 10a3 3 0 0 0 3-3 3 3 0 0 0-3-3 2.91 2.91 0 0 0-2.8 2H2v2h3.2A2.91 2.91 0 0 0 8 10zm0-4a.94.94 0 0 1 1 1 .94.94 0 0 1-1 1 .94.94 0 0 1-1-1 .94.94 0 0 1 1-1zm11.8 5A2.91 2.91 0 0 0 17 9a3 3 0 0 0-3 3 2.74 2.74 0 0 0 0 .5l-4 2.24A3 3 0 0 0 8 14a2.91 2.91 0 0 0-2.8 2H2v2h3.2A2.91 2.91 0 0 0 8 20a3 3 0 0 0 3-3 2.74 2.74 0 0 0 0-.5l4-2.24a3 3 0 0 0 2 .74 2.91 2.91 0 0 0 2.8-2H22v-2zM8 18a1 1 0 0 1 0-2 1 1 0 0 1 0 2zm9-5a1 1 0 1 1 1-1 .94.94 0 0 1-1 1z" fill-rule="evenodd"/><path fill="none" d="M0 0h24v24H0z"/></svg>

<svg xmlns="http://www.w3.org/2000/svg" width="24" height="24" viewBox="0 0 24 24"><path d="M8,10a3,3,0,0,0,3-3A3,3,0,0,0,8,4,2.91,2.91,0,0,0,5.2,6H2V8H5.2A2.91,2.91,0,0,0,8,10ZM8,6A.94.94,0,0,1,9,7,.94.94,0,0,1,8,8,.94.94,0,0,1,7,7,.94.94,0,0,1,8,6Zm11.8,5A2.91,2.91,0,0,0,17,9a3,3,0,0,0-3,3,2.74,2.74,0,0,0,0,.5l-4,2.24A3,3,0,0,0,8,14a2.91,2.91,0,0,0-2.8,2H2v2H5.2A2.91,2.91,0,0,0,8,20a3,3,0,0,0,3-3,2.74,2.74,0,0,0,0-.5l4-2.24A3,3,0,0,0,17,15a2.91,2.91,0,0,0,2.8-2H22V11ZM8,18a1,1,0,0,1,0-2,1,1,0,0,1,0,2Zm9-5a1,1,0,1,1,1-1A.94.94,0,0,1,17,13Z" fill-rule="evenodd"/><rect width="24" height="24" fill="none"/></svg>
